icons/pin.svg

<svg xmlns="http://www.w3.org/2000/svg" viewBox="0 0 24 24">
  <path fill-rule="evenodd" d="M15 5h1V3H8v2h1v6h6V5zm-6 6h6l2 2H7l2-2zm2 8.952V13h2v7.024L12 21l-1-1.048z"/>
</svg>

<?xml version="1.0" encoding="UTF-8" standalone="no"?>
<svg width="24px" height="24px" viewBox="0 0 24 24" version="1.1" xmlns="http://www.w3.org/2000/svg" xmlns:xlink="http://www.w3.org/1999/xlink">
    <!-- Generator: Sketch 40.1 (33804) - http://www.bohemiancoding.com/sketch -->
    <title>pin</title>
    <desc>Created with Sketch.</desc>
    <defs></defs>
    <g id="Page-1" stroke="none" stroke-width="1" fill="none" fill-rule="evenodd">
        <g id="pin" fill="#777777">
            <path d="M15,5 L16,5 L16,3 L8,3 L8,5 L9,5 L9,11 L15,11 L15,5 Z M9,11 L15,11 L17,13 L7,13 L9,11 Z M11,19.9515991 L11,13 L13,13 L13,20.0240479 L12,21 L11,19.9515991 Z" id="Combined-Shape"></path>
        </g>
    </g>
</svg>
